X: 8432
T: Crabs In The Skillet
R: jig
M: 6/8
K: Aminor
|:EAA Bcd|dec d3|Bee dcB|edc BAG|
E2 A Bcd|dec d3|dB/c/d gfe|dBG A2G:|
|:E2A ABc|dGB AGE|DBA ABc|dBG E2D|
E2A ABc|dGB E3|dBe d2B|1 dBG A2G:|2 dBG EAc||
|:Ace Ace|d3 edB|c3 Bed|BAG EDc|
Ace Ace|d3 edB|c3 Bed|BAG A3|
|:Ace Ace|d3 edB|c3 Bed|BAG EDc|
ABc Bcd|cde de=f|eAB edB|edB A3||

